X: 70
T: Christ the Lord Is Risen Today
M: 4/4 % time signature
L: 1/4 % default length
%%staves (S1V1 S1V2) | (S2V1 S2V2) 
%%staffsep 0.62cm
V: S1V1 clef=treble 
%%MIDI beat 127 125 110 1
V: S1V2 
%%MIDI beat 127 125 110 1
V: S2V1 clef=bass 
%%MIDI beat 127 125 110 1
V: S2V2 
%%MIDI beat 127 125 110 1
K: F % key signature
%
%%MIDI program 1 0 % Piano 1
%%MIDI program 2 0 % Piano 1
%%MIDI program 3 0 % Piano 1
%%MIDI program 4 0 % Piano 1
%
% 1
[V: S1V1] [Q:1/4=120] F F A A | c B/A/ G2 | (c3/2 B/ A) B/A/ | G2 F2 |
w: 1.~Christ, the Lord, is risen to- * day, Al- * * le- * lu- ia! 
w: 2.~Love's re- deem- ing work is * done, Al- * * le- * lu- ia! 
w: 3.~Vain the stone, the watch, the * seal, Al- * * le- * lu- ia! 
w: 4.~Lives a- gain our glor- ious * King, Al- * * le- * lu- ia! 
w: 5.~Soar we now where Christ hath * led, Al- * * le- * lu- ia! 
[V: S1V2]  C C F F | F G/F/ E2 | (C D/E/ F) F | (F E) F2 |
[V: S2V1]  A, A, F, F, | C D G,2 | (A,3/2 B,/ C) B,/C/ | (D C) A,2 |
[V: S2V2]  F, F, D, D, | A,, B,, C,2 | (A,3/2 G,/ F,) D,/C,/ | (B,, C,) F,2 |
% 5
[V: S1V1]  F F A A | c B/A/ G2 | (c3/2 B/ A) B/A/ | G2 F2 |
w: Sons of men and an- gels * say, Al- * * le- * lu- ia! 
w: Fought the fight, the ba- ttle * won, Al- * * le- * lu- ia! 
w: Christ hath burst the gates of * hell, Al- * * le- * lu- ia! 
w: Where, O death, is now thy * sting? Al- * * le- * lu- ia! 
w: Follow- ing our ex- al- ted * Head, Al- * * le- * lu- ia! 
[V: S1V2]  C C F F | F G/F/ E2 | (C D/E/ F) F | (F E) F2 |
[V: S2V1]  A, A, F, F, | C D G,2 | (A,3/2 B,/ C) B,/C/ | (D C) A,2 |
[V: S2V2]  F, F, D, D, | A,, B,, C,2 | (A,3/2 G,/ F,) D,/C,/ | (B,, C,) F,2 |
% 9
[V: S1V1]  A A c c | d/c/ B/A/ G2 | (A3/2 G/ A) =B | c2 c2 |
w: Raise your joys and tri- * umphs * high, Al- * * le- lu- ia! 
w: Lo! the Sun's ec- lipse * is * o'er, Al- * * le- lu- ia! 
w: Death in vain for- bids * his * rise, Al- * * le- lu- ia! 
w: Once he died our souls * to * save, Al- * * le- lu- ia! 
w: Made like him, like him * we * rise, Al- * * le- lu- ia! 
[V: S1V2]  F F _E _E | D D E2 | (F3/2 G/ F) F | (E3/2 F/) E2 |
[V: S2V1]  F, F, G, A, | B, B, C2 | C3 F, | (G,3/2 A,/) C2 |
[V: S2V2]  D, D, C, C, | B,, G,, C,2 | (F,3/2 E,/ F,) D, | C,2 (C _B,) |
% 13
[V: S1V1]  F F A A | c B/A/ G2 | !sintro!(c3/2 B/ A) B/A/ | G2 F2 !eintro!|]
w: Sing, ye heavens, and earth, re- * ply, Al- * * le- * lu- ia! 
w: Lo! He sets in blood no * more, Al- * * le- * lu- ia! 
w: Christ hath o- pened par- a- * dise, Al- * * le- * lu- ia! 
w: Where thy vic- to- ry, O * grave? Al- * * le- * lu- ia! 
w: Ours the cross, the grave, the * skies, Al- * * le- * lu- ia! 
[V: S1V2]  F C C F | F G/F/ E2 | (C D/E/ C) F | (F E) C2 |]
[V: S2V1]  C C/B,/ A, F, | C D G,2 | (F,3/2 G,/ A,) F, | G,2 A,2 |]
[V: S2V2]  A, A,/G,/ F, D, | A,, B,, C,2 | (A,,3/2 G,,/ F,,) G,,/A,,/ | (B,, C,) F,,2 |]
% 18
%%begintext obeylines justify
%% 6.\tHail, the Lord of earth and Heaven, Alleluia!
%% \t\t\t\tPraise to thee by both be given, Alleluia!
%% \t\t\t\tThee we greet triumphant now, Alleluia!
%% \t\t\t\tHail, the resurrection, thou, Alleluia!
%%
%% 7.\tKing of glory, Soul of bliss, Alleluia!
%% \t\t\t\tEverlasting life is this, Alleluia!
%% \t\t\t\tThee to know, thy power to prove, Alleluia!
%% \t\t\t\tThus to sing and thus to love, Alleluia!
%%endtext
%%begintext obeylines justify
%% 8.\tHymns of praise then let us sing, Alleluia!
%% \t\t\t\tUnto Christ, our heavenly King, Alleluia!
%% \t\t\t\tWho endured the cross and grave, Alleluia!
%% \t\t\t\tSinners to redeem and save. Alleluia!
%%
%% 9.\tBut the pains that he endured, Alleluia!
%% \t\t\t\tOur salvation have procured, Alleluia!
%% \t\t\t\tNow above the sky he's King, Alleluia!
%% \t\t\t\tWhere the angels ever sing. Alleluia!
%%endtext
%%begintext obeylines justify
%% 10.Jesus Christ is risen today, Alleluia!
%% \t\t\t\tOur triumphant holy day, Alleluia!
%% \t\t\t\tWho did once upon the cross, Alleluia!
%% \t\t\t\tSuffer to redeem our loss. Alleluia!
%%endtext


